X: 168
T:Rachel
O:Israeli
C: Moshe Wilensky 1972
I:choreographer D.Dassa 1970
F: http://www.youtube.com/watch?v=22b0UjPiNNY
F: http://www.youtube.com/watch?v=OyFpG_VyXIU
L:1/8
M:4/4
Q:1/4=144
K:F#m
 f/=g/f/e/ f6    | f/=g/f/e/ f6   | fe f2 ff e2  | de f6       |
 z6 fe       | f6 fe      |f2 d2 c2 cB  | B6 A2       |c2 ce dcBA|
 d2 dc e4-   |e4 z2 e2    | aa a4 ab    | ag g2 fe g2-|
 g4 z2 gf    | g2 a2 f4   | e2 ec f4-   |f2 z2 f4     |
 b2 bc' a2 b2| gagf f2 fe |f2 g2 c2 cB  | c6 c2       |
 g2 gf b4-   |b6 b2       | c'2 ga f4   |f4 z2 f2     |
 g2 a2 g2 f2 | f2 fg e2 z2| c2 d2 dc c2-|c6 c2        |
 g2 gf b4-   |b6 b2       | c'2 ga f4-  |f6 f2        |
 b2 bc' a2 g2|f2 e2 c2 e2 |g2 gf g4     |g6 c2        |
 e2 z2 gfge  | f8         |



